raw/symbols/chain.svg

<svg width="42" height="42" viewBox="0 0 42 42" fill="none" xmlns="http://www.w3.org/2000/svg">
<circle cx="21" cy="21" r="20" fill="#00D6BF"/>
<path d="M10.9067 14.9821L17 11.4641L23.0933 14.9821V22.018L19.6292 24.018L22.6292 25.75L26.0933 23.75V13.25L17 8L7.90674 13.25V23.75L11.3708 25.75L14.3708 24.018L10.9067 22.0179V14.9821Z" fill="#F3F3F3"/>
<path d="M19.3971 15.7775L16 17.7389V28.2389L25.0933 33.4889L34.1865 28.2389V17.7389L29.7894 15.2002L26.7894 16.9322L31.1865 19.4709V26.5068L25.0933 30.0248L19 26.5068V19.4709L22.3971 17.5096L19.3971 15.7775Z" fill="#F3F3F3"/>
</svg>

<svg xmlns="http://www.w3.org/2000/svg" width="42" height="42" fill="none"><circle cx="21" cy="21" r="20" fill="#00D6BF"/><path fill="#F3F3F3" d="M10.907 14.982 17 11.464l6.093 3.518v7.036l-3.464 2 3 1.732 3.464-2v-10.5L17 8l-9.093 5.25v10.5l3.464 2 3-1.732-3.464-2v-7.036Z"/><path fill="#F3F3F3" d="M19.397 15.777 16 17.74v10.5l9.093 5.25 9.094-5.25v-10.5L29.789 15.2l-3 1.732 4.397 2.539v7.036l-6.093 3.518L19 26.507V19.47l3.397-1.961-3-1.733Z"/></svg>
